X:140
T:Waltzes simple chords 12
M:3/4
L:1/8
K:Em
BA [G2G,2B,2D2] G2 | GA [B2G,2B,2D2] d2 | d2 [e2C,2E,2G,2] g2 | g2 [a4D,4F,4A,4C4] | ga [b2G,2B,2D2] b3 |
a [g2G,2B,2D2] d2 | d2 [e2C,2E,2G,2] g2 | g2 [e2D,2F,2A,2C2] dc | BA [G2G,2B,2D2] G2 |
GA [B2G,2B,2D2] d2 | d2 [e2C,2E,2G,2] g2 | g2 [a4D,4F,4A,4C4] | ga [b2G,2B,2D2] b3 |
a [g2G,2B,2D2] d2 | d2 [e2C,2E,2G,2] g2 | f2 [g2G,2B,2D2] f2 | g2 [a2D,2F,2A,2] a3 |
g [f2D,2F,2A,2] d2 | d2 [g2C,2E,2G,2] g2 | e2 [d4G,4B,4D4] | d2 [a2D,2F,2A,2] a3 |
g [f2D,2F,2A,2] d2 | d2 [g2C,2E,2G,2] g2 | e2 [d2D,2F,2A,2C2]>c2 | BA [G2G,2B,2D2] G2 |
GA [B2G,2B,2D2] d2 | d2 [e2C,2E,2G,2] g2 | g2 [a4D,4F,4A,4C4] | ga [b2G,2B,2D2] b3 |
a [g2G,2B,2D2] d2 | d2 [e2C,2E,2G,2] g2 | f2 [g4G,4B,4D4] |


